!!!!SEGMENT: pl-cz--d-ii-35--glosy_elsner-jozef--ave-maria-glosy.krn
!!!cenid: 18xx:195a
!!!COM: Elsner, Józef
!!!COM-rismID: pe30000957
!!!CDT: 1769/06/01-1854/04/18
!!!CNT: Polish
!!!OTL: Ave Maria [głosy]
!!!PDT:
!!!AGN: Sacred
!!!SMS-siglum: PL-CZ
!!!SMS-shelfmark: D II-35
!!!SMS-shelfwork: W
!!!NIFC-rismSourceID: 1001050039
!!!NIFC-rismChildID: 1001050039
!!!NIFC-islandoraID:
!!!URL-pdf-islandora:
!!!URL-scan:
!!!ONB-nifc:
!!!OMD: Andante
!!!AIN: 1 alto 1 bass 1 soprn 1 tenor
!!!key:
**kern	**text	**dynam	**kern	**text	**dynam	**kern	**text	**dynam	**kern	**text	**dynam
*part4	*part4	*part4	*part3	*part3	*part3	*part2	*part2	*part2	*part1	*part1	*part1
*staff4	*staff4	*	*staff3	*staff3	*	*staff2	*staff2	*	*staff1	*staff1	*
*Ibass	*	*	*Itenor	*	*	*Ialto	*	*	*Isoprn	*	*
*I"Basso	*	*	*I"Tenore	*	*	*I"Alto	*	*	*I"Soprano	*	*
*I'B.	*	*	*I'T.	*	*	*I'A.	*	*	*I'S.	*	*
*clefF4	*	*	*clefC4	*	*	*clefC3	*	*	*clefC1	*	*
*k[b-e-]	*	*	*k[b-e-]	*	*	*k[b-e-]	*	*	*k[b-e-]	*	*
*B-:	*	*	*B-:	*	*	*B-:	*	*	*B-:	*	*
*M4/4	*	*	*M4/4	*	*	*M4/4	*	*	*M4/4	*	*
*met(c|)	*	*	*met(c|)	*	*	*met(c|)	*	*	*met(c|)	*	*
=1	=1	=1	=1	=1	=1	=1	=1	=1	=1	=1	=1
!	!	!	!	!	!	!	!	!	!LO:SIC:v=w oznaczeniu tempa litera a jak mała	!	!
!LO:TX:a:t=Andante	!	!	!LO:TX:a:t=Andante	!	!	!LO:TX:a:t=Andante	!	!	!LO:TX:a:t=Andante	!	!
*2\right	*	*	*2\right	*	*	*2\right	*	*	*2\right	*	*
2BB-/	A-	.	2f\	A-	.	2b-\	A-	.	2dd\	A-	.
!LO:TX:a:t=dol	!	!	!LO:TX:a:t=dolce	!	!	!LO:TX:a:t=dol	!	!	!	!	!
4.F\	-ve	.	4.e-\	-ve	.	4.a\	-ve	.	4.cc\	-ve	.
8F\	Ma-	.	8f\	Ma-	.	8b-\	Ma-	.	8dd\	Ma-	.
=2	=2	=2	=2	=2	=2	=2	=2	=2	=2	=2	=2
2B-\	-ri-	.	2d\	-ri-	.	2f\	-ri-	.	2b-\	-ri-	.
4B-\	-a	.	4d\	-a	.	4f\	-a	.	4f/	-a	.
.	.	.	.	.	.	.	.	.	.	.	.
4r	.	.	4r	.	.	4r	.	.	4r	.	.
.	.	.	.	.	.	.	.	.	.	.	.
=3yy	=3yy	=3yy	=3	=3	=3	=3	=3	=3	=3	=3	=3
2A^\	A-	.	2c\	Ave	.	2f^\	A-	.	2ee-^\	A-	.
4.B-\	-ve	.	4.d\	.	.	4.f\	-ve	.	4.dd\	-ve	.
8BB-/	Ma-	.	8B-\	Ma-	.	8f\	Ma-	.	8dd\	Ma-	.
=4	=4	=4	=4	=4	=4	=4	=4	=4	=4	=4	=4
2F\	-ri-	.	4A\	-ri-	.	2f\	-ri-	.	(4cc\	-ri-	.
.	.	.	4B-\	.	.	.	.	.	4dd\)	.	.
4F\	-a	.	4A\	-a	.	4f\	-a	.	4cc\	-a	.
.	.	.	.	.	.	.	.	.	.	.	.
4r	.	.	4r	.	.	4r	.	.	4r	.	.
=5	=5	=5	=5	=5	=5	=5	=5	=5	=5	=5	=5
!	!	!	!	!	!	!	!	!	!LO:N:vis=8.	!	!
4.D^\	Gra-	.	4.B-\	Gra-	.	4.f^\	Gra-	.	4.ff^\	Gra-	.
8D\	-ti-	.	8B-\	-ti-	.	8f\	-ti-	.	8b-\	-ti-	.
2G\	-a	.	2B-\	-a	.	2d\	-a	.	2b-\	-a	.
=6	=6	=6	=6	=6	=6	=6	=6	=6	=6	=6	=6
!LO:PB:g=original	!	!	!LO:PB:g=original	!	!	!LO:PB:g=original	!	!	!LO:PB:g=original	!	!
2C/	ple-	.	(4.G/	ple-	.	(4.en\	ple	.	(4.b-\	ple-	.
.	.	.	8A/)	.	.	8f\)	.	.	8a\)	.	.
4F\	-na	.	4A/	-na	.	4f\	na	.	4cc\	-na	.
.	.	.	.	.	.	.	.	.	.	.	.
4r	.	.	4r	.	.	4r	.	.	4r	.	.
=7	=7	=7	=7	=7	=7	=7	=7	=7	=7	=7	=7
4.D\	Do-	.	4.B-\	Do-	.	4.f\	Do-	.	4.ff\	Do	.
8D\	-mi-	.	8B-\	-mi	.	8f\	-mi	.	8b-\	mi-	.
2G\	-nus	.	2B-\	nus	.	2d\	nus	.	2b-\	-nus	.
=8	=8	=8	=8	=8	=8	=8	=8	=8	=8	=8	=8
!	!	!	!LO:N:vis=8.	!	!	!	!	!	!	!	!
2C/	te-	.	8G/	te-	.	(4.en\	te-	.	(4.b-\	te-	.
.	.	.	4A/	.	.	.	.	.	.	.	.
.	.	.	8r	.	.	8f\)	.	.	8a\)	.	.
2F\	-cum	.	2A/	-cum	.	2f\	-cum	.	2cc\	-cum	.
=9	=9	=9	=9	=9	=9	=9	=9	=9	=9	=9	=9
2D\	Be-	.	2A/	Be-	.	2f#X\	Be-	.	2.dd\	Be-	.
2E-\	-ne-	.	2G/	-ne	.	2g\	-ne-	.	.	.	.
.	.	.	.	.	.	.	.	.	4cc\	-ne	.
=10	=10	=10	=10	=10	=10	=10	=10	=10	=10	=10	=10
2.F\	-di-	.	(2d\	di-	.	(2fn\	-di-	.	(2b-\	di-	.
.	.	.	8c\L	.	.	8f\L	.	.	8a\L	.	.
.	.	.	8B-\J)	.	.	8g\J)	.	.	8b-\J)	.	.
4F\	-cta	.	8A\L	-cta	.	8a\L	.	.	8cc\L	.	.
.	.	.	8A-X\J	.	.	8b-\J	-cta	.	8dd\J	-cta	.
=11	=11	=11	=11	=11	=11	=11	=11	=11	=11	=11	=11
2.C/	tu	.	2.G/	tu	.	2.cc\	tu	.	2.ee-\	tu	.
4r	.	.	4r	.	.	4r	.	.	4r	.	.
=12	=12	=12	=12	=12	=12	=12	=12	=12	=12	=12	=12
!LO:SIC:o:v=skreślone nuty nad właściwymi	!	!	!	!	!	!	!	!	!LO:PB:g=original	!	!
2AA/	Be-	.	2c\	Be-	.	2f\	Be-	.	2.ee-\	Be-	.
2BB-/	-ne	.	2B-\	-ne	.	2f\	-ne	.	.	.	.
.	.	.	.	.	.	.	.	.	4dd\	-ne	.
=13	=13	=13	=13	=13	=13	=13	=13	=13	=13	=13	=13
!	!	!	!LO:PB:g=original	!	!	!	!	!	!	!	!
[2F\	di-	.	(4B-\	di-	.	(4.f\	di-	.	(2cc\	di-	.
.	.	.	4A\	.	.	.	.	.	.	.	.
.	.	.	.	.	.	8e-\	.	.	.	.	.
8F\L]	.	.	8A-X\L	.	.	8d\L)	.	.	8bn\L	.	.
8E-\J	.	.	8G\J	.	.	8e-\J	.	.	8cc\J	.	.
8D\L	.	.	8F/L)	.	.	8f\L	.	.	8dd\L	.	.
8C\J	-cta	.	8E-/J	-cta	.	8g\J	-cta	.	8ee-\J)	-cta	.
=14	=14	=14	=14	=14	=14	=14	=14	=14	=14	=14	=14
!LO:PB:g=original	!	!	!	!	!	!	!	!	!	!	!
!LO:SIC:o:v=wykreślony takt	!	!	!	!	!	!	!	!	!	!	!
2BBn/	tu	.	2D/	tu	.	2a-X\	tu	.	2ff\	tu	.
4r	.	.	4r	.	.	4r	.	.	4r	.	.
4G\	in	.	4Bn\	in	.	4g\	in	.	4dd\	in	.
=15	=15	=15	=15	=15	=15	=15	=15	=15	=15	=15	=15
4BBn/	muli	.	(4d\	mu	.	4.g\	mu	.	(4ff\	mu-	.
8C/L	.	.	8c\)	.	.	.	.	.	8ee-'\)	.	.
8BB-X/J	.	.	8e-\	li	.	8g-X\	li	.	8cc'\	-li	.
4AA/	e-	.	(4c\	e-	.	4.f\	e-	.	(4ee-\	e-	.
4BB-/	-ri-	.	8B-\)	.	.	.	.	.	8dd\)	.	.
.	.	.	8d\	-ri-	.	8f\	-ri-	.	8b-\	-ri-	.
=16	=16	=16	=16	=16	=16	=16	=16	=16	=16	=16	=16
2F\	-bus	.	2A/	-bus	.	2f\	-bus	.	2cc\	-bus	.
4r	.	.	4r	.	.	4r	.	.	4r	.	.
4F\	et	.	4c\	et	.	4f\	et	.	4a\	et	.
=17	=17	=17	=17	=17	=17	=17	=17	=17	=17	=17	=17
!	!	!	!LO:PB:g=original	!	!	!	!	!	!LO:PB:g=original	!	!
4F\	be-	.	4d\	be-	.	4f\	be-	.	4b-\	be-	.
4F\	-ne	.	4c\	-ne-	.	4f\	-ne	.	4a\	-ne	.
2F\	di-	.	(4.en\	-di-	.	2g\	di-	.	2b-\	di-	.
.	.	.	16d\LL	.	.	.	.	.	.	.	.
.	.	.	16e\JJ)	.	.	.	.	.	.	.	.
=18	=18	=18	=18	=18	=18	=18	=18	=18	=18	=18	=18
!LO:PB:g=original	!	!	!	!	!	!LO:PB:g=original	!	!	!	!	!
4F\	-ctus	.	4f\	-ctus	.	4f\	-ctus	.	4a\	-ctus	.
4F\	et	.	4A/	et	.	4f\	et	.	4cc\	et	.
.	.	.	8qc/	.	.	.	.	.	8qeen/	.	.
4F\	be-	.	4B-\	be-	.	4f\	be-	.	4dd\	be-	.
4F\	-ne-	.	4A\	-ne	.	4f\	-ne	.	4cc\	-ne-	.
=19	=19	=19	=19	=19	=19	=19	=19	=19	=19	=19	=19
2C/	-di-	.	2B-\	di-	.	2g\	di-	.	(4.een\	-di-	.
.	.	.	.	.	.	.	.	.	16dd\LL	.	.
.	.	.	.	.	.	.	.	.	16ee\JJ)	.	.
2D/	-ctus	.	2A/	-ctus	.	2f\	-ctus	.	2ff\	-ctus	.
=20	=20	=20	=20	=20	=20	=20	=20	=20	=20	=20	=20
4.BB-/	fru-	.	4d\	fructus	.	4.f\	fructus	.	4ff\	fructus	.
.	.	.	8c\L	.	.	.	.	.	8een\L	.	.
8BB-/	-ctus	.	8B-\J	.	.	16f\LL	.	.	8dd\J	.	.
.	.	.	.	.	.	16f#X\JJ	.	.	.	.	.
4.BB-/	ven-	.	4B-\	ven-	.	4g\	ventris	.	4dd\	ventris	.
.	.	.	8c\L	-tris	.	8a\L	.	.	8cc\L	.	.
8BB-/	-tris	.	8d\J	.	.	8b-\J	.	.	8b-\J	.	.
=21	=21	=21	=21	=21	=21	=21	=21	=21	=21	=21	=21
4.C/	tui	.	4c\	tui	.	4.f\	tui	.	4a\	tui	.
.	.	.	8d\L	.	.	.	.	.	8b-\L	.	.
8C/	.	.	8c\J	.	.	(8f\	.	.	8a\J	.	.
2C/	Je-	.	4.c\	Je-	.	4f\	Je-	.	2g\	Je-	.
.	.	.	.	.	.	4en\)	.	.	.	.	.
.	.	.	8B-\	.	.	.	.	.	.	.	.
=22	=22	=22	=22	=22	=22	=22	=22	=22	=22	=22	=22
!LO:N:vis=2.	!	!	!	!	!	!	!	!	!	!	!
2F\	-sus	.	2A\	-sus	.	2f\	-sus	.	2f/	-sus	.
!	!	!	!	!	!	!	!	!	!LO:PB:g=original	!	!
2r	.	.	2r	.	.	2r	.	.	4r	.	.
.	.	.	.	.	.	.	.	.	8f/L	Je-	.
.	.	.	.	.	.	.	.	.	16b-/L	.	.
.	.	.	.	.	.	.	.	.	16a/JJ	.	.
=23	=23	=23	=23	=23	=23	=23	=23	=23	=23	=23	=23
!	!	!	!LO:PB:g=original	!	!	!	!	!	!	!	!
1C/	Je-	.	4A\	Je-	.	4f\	Je-	.	(1cc\	.	.
.	.	.	8B-\L	.	.	8g\L	.	.	.	.	.
.	.	.	8A\J	.	.	8f\J	.	.	.	.	.
.	.	.	8G/L	.	.	8en\L	.	.	.	.	.
.	.	.	16A\L	.	.	16f\L	.	.	.	.	.
.	.	.	16G/JJ	.	.	16e\JJ	.	.	.	.	.
.	.	.	8F#X/L	.	.	8d#X\L	.	.	.	.	.
.	.	.	8G/J	.	.	8e\J	.	.	.	.	.
=24	=24	=24	=24	=24	=24	=24	=24	=24	=24	=24	=24
!	!	!	!	!	!	!LO:PB:g=original	!	!	!	!	!
2.FF/	-sus	.	2.A/	-sus	.	2.f\	-sus	.	2.cc\)	-sus	.
.	.	.	.	.	.	.	.	.	.	.	.
.	.	.	.	.	.	.	.	.	.	.	.
4r	.	.	4r	.	.	4r	.	.	4r	.	.
.	.	.	.	.	.	.	.	.	.	.	.
=25||	=25||	=25||	=25||	=25||	=25||	=25||	=25||	=25||	=25||	=25||	=25||
!LO:PB:g=original	!	!	!	!	!	!	!	!	!	!	!
1r	.	.	1r	.	.	1r	.	.	1r	.	.
.	.	.	.	.	.	.	.	.	.	.	.
!LO:TX:a:t=1	!	!	!LO:TX:a:t=1	!	!	!LO:TX:a:t=1	!	!	!LO:TX:a:t=1	!	!
.	.	.	.	.	.	.	.	.	.	.	.
=26	=26	=26	=26	=26	=26	=26	=26	=26	=26	=26	=26
1r	.	.	1r	.	.	1r	.	.	1r	.	.
.	.	.	.	.	.	.	.	.	.	.	.
!LO:TX:a:t=2	!	!	!LO:TX:a:t=2	!	!	!LO:TX:a:t=2	!	!	!LO:TX:a:t=2	!	!
.	.	.	.	.	.	.	.	.	.	.	.
=27	=27	=27	=27	=27	=27	=27	=27	=27	=27	=27	=27
2BB-/	San-	.	2f\	San-	.	2b-\	San-	.	2dd\	San-	.
4.F\	-cta	.	4.e-\	-cta	.	4.a\	-cta	.	4.cc\	-cta	.
8F\	Ma-	.	8d\	Ma-	.	8b-\	Ma-	.	8dd\	Ma-	.
=28	=28	=28	=28	=28	=28	=28	=28	=28	=28	=28	=28
2B-\	-ri-	.	2d\	-ri-	.	2f\	-ri-	.	2b-\	-ri-	.
4B-\	-a	.	4d\	-a	.	4f\	-a	.	4f/	-a	.
.	.	.	.	.	.	.	.	.	.	.	.
4r	.	.	4r	.	.	4r	.	.	4r	.	.
=29	=29	=29	=29	=29	=29	=29	=29	=29	=29	=29	=29
2A\	San-	.	2c\	San-	.	2f\	San-	.	2ee-^\	San-	.
4.B-\	-cta	.	4.d\	-cta	.	4.f\	-cta	.	4.dd\	-cta	.
8BB-/	Ma-	.	8B-\	Ma-	.	8f\	Ma-	.	8dd\	Ma-	.
=30	=30	=30	=30	=30	=30	=30	=30	=30	=30	=30	=30
!	!	!	!LO:PB:g=original	!	!	!	!	!	!	!	!
2F\	-ri-	.	(4.A/	-ri-	.	2f\	-ri-	.	(4.cc\	-ri-	.
.	.	.	8B-/)	.	.	.	.	.	8dd\)	.	.
4F\	-a	.	4A/	-a	.	4f\	-a	.	4cc\	-a	.
.	.	.	.	.	.	.	.	.	.	.	.
4r	.	.	4r	.	.	4r	.	.	4r	.	.
=31	=31	=31	=31	=31	=31	=31	=31	=31	=31	=31	=31
!	!	!	!	!	!	!	!	!	!LO:PB:g=original	!	!
2D\	Ma-	.	2B-\	Ma-	.	2f\	Ma-	.	(4.ff^\	Ma-	.
.	.	.	.	.	.	.	.	.	8b-\)	.	.
2G\	-ter	.	2B-\	-ter	.	2d\	-ter	.	2b-\	-ter	.
=32	=32	=32	=32	=32	=32	=32	=32	=32	=32	=32	=32
!	!	!	!	!	!	!LO:PB:g=original	!	!	!	!	!
2C/	De-	.	4.G/	De-	.	(4.en\	De-	.	(4.b-\	De-	.
.	.	.	8A/	.	.	8f\	.	.	8a\)	.	.
4F\	-i	.	4A/	-i	.	4f\)	-i	.	4cc\	-i	.
.	.	.	.	.	.	.	.	.	.	.	.
4r	.	.	4r	.	.	4r	.	.	4r	.	.
=33	=33	=33	=33	=33	=33	=33	=33	=33	=33	=33	=33
!LO:PB:g=original	!	!	!	!	!	!	!	!	!	!	!
2D\	Ma-	.	2B-\	Ma-	.	2f\	Ma-	.	(4.ff\	Ma-	.
.	.	.	.	.	.	.	.	.	8b-\)	.	.
2G\	-ter	.	2B-\	-ter	.	2d\	-ter	.	2b-\	-ter	.
=34	=34	=34	=34	=34	=34	=34	=34	=34	=34	=34	=34
2C/	De-	.	(4.G/	De-	.	(4.en\	De-	.	(4.b-\	De-	.
.	.	.	8A/)	.	.	8f\)	.	.	8a\)	.	.
2F\	-i	.	4A/	-i	.	2f\	-i	.	4cc\	-i	.
.	.	.	4r	.	.	.	.	.	4r	.	.
=35	=35	=35	=35	=35	=35	=35	=35	=35	=35	=35	=35
!	!	!	!	!	!	!	!	!	!	!	!LO:DY:a
2D\	o-	.	2A/	o-	.	2f#X\	o-	.	2dd\	o-	p
4E-\	-ra	.	4G/	-ra	.	4g\	-ra	.	4dd\	-ra	.
4E-\	pro	.	4c\	pro	.	4g\	pro	.	4cc\	pro	.
=36	=36	=36	=36	=36	=36	=36	=36	=36	=36	=36	=36
2F\	no-	.	2d\	no-	.	2fn\	no-	.	2b-\	no-	.
4F\	-bis	.	4c\	bis	.	4f\	-bis	.	4a\	-bis	.
.	.	.	.	.	.	.	.	.	.	.	.
4r	.	.	4r	.	.	4r	.	.	4r	.	.
=37	=37	=37	=37	=37	=37	=37	=37	=37	=37	=37	=37
!	!	!	!LO:PB:g=original	!	!	!	!	!	!LO:PB:g=original	!	!
2F#X^\	o-	.	2c^\	o-	.	2a^\	o-	.	2ee-^\	ora	.
4G\	-ra	.	4c\	-ra	.	4g\	-ra	.	4ee-\	.	.
4G\	pro	.	4Bn\	pro	.	4g\	pro	.	4dd\	pro	.
=38	=38	=38	=38	=38	=38	=38	=38	=38	=38	=38	=38
!	!	!	!	!	!	!LO:PB:g=original	!	!	!	!	!
2A-X\	no-	.	2c\	no-	.	(4g\	no-	.	2cc\	no-	.
.	.	.	.	.	.	4f#X\)	.	.	.	.	.
4G\	-bis	.	4d\	-bis	.	4g\	-bis	.	4bn\	-bis	.
4F\	pro	.	4d\	pro	.	4g\	pro	.	4b\	pro-	.
=39	=39	=39	=39	=39	=39	=39	=39	=39	=39	=39	=39
!LO:PB:g=original	!	!	!	!	!	!	!	!	!	!	!LO:DY:a
4.E-\	no-	.	4.c\	no-	.	4.g\	no-	.	4.cc\	-no-	<
8D\	-bis	.	8Bn\	-bis	.	8f\	-bis	.	8dd\	-bis	.
4.C\	pec-	.	4.c\	pec-	.	4.e-\	pec-	.	4.ee-\	pec-	.
8E-\	-ca	.	8c\	-ca	.	8g\	-ca-	.	16dd\LL	-ca-	[
.	.	.	.	.	.	.	.	.	16cc\JJ	.	.
=40	=40	=40	=40	=40	=40	=40	=40	=40	=40	=40	=40
4.F\	to-	.	4.c\	to	.	4.f\	-to-	.	4.b-\	-to-	.
8F\	-ri	.	8c\	ri	.	8f\	-ri-	.	8a\	-ri-	.
4F\	bus	.	4c\	bus	.	4f\	-bus	.	4a\	-bus	.
4E-\	pro	.	4c\	pro	.	4f\	pro	.	4a\	pro	.
=41	=41	=41	=41	=41	=41	=41	=41	=41	=41	=41	=41
4.D-/	no-	.	4.B-\	no	.	4.f\	no-	.	4.b-\	no-	.
8C/	-bis	.	8An\	bis	.	8e-\	-bis	.	8cc\	-bis	.
4.BB-/	pec-	.	4.B-\	pec-	.	4.d-X\	pec-	.	4.dd-X\	pec-	.
8D-X/	-ca	.	8B-\	-ca	.	8f\	-ca	.	16cc\LL	-ca	.
.	.	.	.	.	.	.	.	.	16b-\JJ	.	.
=42	=42	=42	=42	=42	=42	=42	=42	=42	=42	=42	=42
!	!	!	!	!	!	!	!	!	!LO:PB:g=original	!	!
!	!	!	!	!	!	!	!	!LO:DY:rj	!	!	!LO:DY:rj
4.GG-X/	to-	sf	4.d-X\	to-	ff	4.b-\	to	ff	4.een\	to-	ff
8GG-/	-ri	.	8d-\	-ri	.	8b-\	ri	.	8ee\	-ri-	.
4.GG-/	bus	.	4.d-\	bus	.	4.b-\	bus	.	4.ee\	-bus	.
8r;	.	.	8r;	.	.	8r;	.	.	8r;	.	.
=43	=43	=43	=43	=43	=43	=43	=43	=43	=43	=43	=43
!LO:LB:g=original	!	!	!LO:PB:g=original	!	!	!LO:PB:g=original	!	!	!	!	!
!LO:TX:a:t=collaparte	!	!	!	!	!	!	!	!	!LO:TX:b:t=dolce	!	!
2FF/	o-	pp	2d\	o-	.	(2b-\	o-	.	2ff\	o-	.
!	!	!	!	!	!	!	!	!	!LO:TX:b:t=a picare un poco	!	!
4FF/	-ra	.	4B-\	-ra	.	4f\)	-ra	.	4ddn\	-ra	.
4r	.	.	4r	.	.	4r	.	.	4r	.	.
=44	=44	=44	=44	=44	=44	=44	=44	=44	=44	=44	=44
2F\	o-	.	2c\	o-	.	2a\	o-	.	2ee-\	o-	.
4F\ 4D\	-ra	.	4A\	-ra	.	4f\	-ra	.	4cc\	-ra	.
4r	.	.	4r	.	.	4r	.	.	4r	.	.
=45	=45	=45	=45	=45	=45	=45	=45	=45	=45	=45	=45
!	!	!	!	!	!	!	!	!	!LO:TX:a:t=Tempo 1mo	!	!LO:DY:a
4.C\	nunc	.	4.c\	nunc	.	4.g\	nunc	sf	4.ee-\	nunc	sf
8r	.	.	8r	.	.	8r	.	.	8r	.	.
4.F\	et	.	4.A\	et	.	4.f\	et	.	4.cc\	et	.
8F\	in	.	8A\	in	.	8f\	in	.	8cc\	in	.
=46	=46	=46	=46	=46	=46	=46	=46	=46	=46	=46	=46
2BB-/	ho-	.	2B-\	ho-	.	2f\	ho-	.	2dd\	ho-	.
4BB-/	-ra	.	4d\	-ra	.	4f\	-ra	.	4b-\	-ra	.
4r	.	.	4r	.	.	4r	.	.	4r	.	.
=47	=47	=47	=47	=47	=47	=47	=47	=47	=47	=47	=47
!	!	!	!	!	!	!LO:LB:g=original	!	!	!	!	!LO:DY:a
!	!	!	!	!	!	!LO:SIC:v=zła sylaba skreślona	!	!	!	!	!
4.E-\	nunc	sf	4.G/	nunc	.	4.g\	nunc	.	4cc\	nunc	sf
.	.	.	.	.	.	.	.	.	4r	.	.
8r	.	.	8r	.	.	8r	.	.	.	.	.
4D/	et	.	4.A\	et	.	4.f#X\	et	.	4.dd\	et	.
4D/	.	.	.	.	.	.	.	.	.	.	.
.	in	.	8A\	in	.	8f#\	in	.	8dd\	in	.
=48	=48	=48	=48	=48	=48	=48	=48	=48	=48	=48	=48
!LO:PB:G=original	!	!	!	!	!	!	!	!	!LO:LB:g=original	!	!
2.G\	ho-	.	2.B-\	ho-	.	2.g\	ho-	.	2.b-\	ho-	.
4G\	-ra	.	4G/	-ra	.	4g\	-ra	.	4g\	-ra	.
=49	=49	=49	=49	=49	=49	=49	=49	=49	=49	=49	=49
!	!	!LO:DY:b	!	!	!	!	!	!	!	!	!LO:DY:a:rj
2.A-X\	mor-	pp	2.A-X\	mor-	.	2.a-X\	mor-	.	2.a-X\	mor-	pp
4G\	-tis	.	4G/	-tis	.	4g\	-tis	.	4g\	-tis	.
=50	=50	=50	=50	=50	=50	=50	=50	=50	=50	=50	=50
2F#X\	no-	.	2F#X/	no-	.	2f#X\	no-	.	2f#X/	no-	.
4G\	-strae	.	4G/	-strae	.	4g\	-strae	.	4g/	-strae	.
4r	.	.	4r	.	.	4r	.	.	4r	.	.
=51	=51	=51	=51	=51	=51	=51	=51	=51	=51	=51	=51
!	!	!	!LO:LB:g=original	!	!	!	!	!	!	!	!
!	!	!	!	!	!	!	!	!	!	!	!LO:DY:a
2E-\	nunc	.	2B-\	nunc	.	2g\	nunc	.	2b-\	nunc	<
4E-\	et	.	4An\	et	.	4f#X\	et	.	4cc\	et	.
!	!	!LO:DY:a	!	!	!	!	!	!	!	!	!
4E-\	in	.	4B-\	in	.	4g\	in	.	4b-\	in	[[
=52	=52	=52	=52	=52	=52	=52	=52	=52	=52	=52	=52
!	!	!	!	!	!	!LO:PB:g=original	!	!	!	!	!
4E-\	ho-	>	4c\	ho-	.	4f#X\	ho-	.	4an\	hora	.
!	!	!	!LO:SIC:o:v=notatka decres	!	!	!	!	!	!	!	!
4E-\	-ra	.	4B-\	-ra	.	4g\	-ra	.	4b-\	.	.
4E-\	et	]	4An\	et	.	4f#\	et	.	4cc\	et	.
4E-\	in	.	4B-\	in	.	4g\	in	.	4b-\	in	.
=53	=53	=53	=53	=53	=53	=53	=53	=53	=53	=53	=53
!	!	!	!	!	!	!	!	!	!LO:PB:g=original	!	!
2D\	ho-	.	2f\	ho-	.	2fn\	ho-	.	2b-\	ho-	.
2C#X\	-ra	.	2en\	-ra	.	2g\	-ra	.	2b-\	-ra	.
=54	=54	=54	=54	=54	=54	=54	=54	=54	=54	=54	=54
!LO:PB:G=original	!	!	!	!	!	!	!	!	!	!	!
(4D\	mor	.	(4f\	mor	.	(4f\	mor-	.	2b-\	mor-	.
4D-X\)	.	.	4en\)	.	.	4g\)	.	.	.	.	.
(>4C/	tis	.	(4e-X\	tis	.	(4a\	-tis	.	(4cc\	-tis	.
4BB-/)	.	.	4d\)	.	.	4b-\)	.	.	4dd\)	.	.
=55	=55	=55	=55	=55	=55	=55	=55	=55	=55	=55	=55
1FF/ 1F/	no	.	2.f\	no-	.	(4b-\	no-	.	2.cc\	no-	>
.	.	.	.	.	.	8a\L	.	.	.	.	.
.	.	.	.	.	.	8g\J)	.	.	.	.	.
.	.	.	.	.	.	2a\	.	.	.	.	.
.	.	.	8f\L	.	.	.	.	.	(8dd\L	.	]
.	.	.	8e-\J	.	.	.	.	.	8cc\J)	.	.
=56	=56	=56	=56	=56	=56	=56	=56	=56	=56	=56	=56
!	!	!	!LO:PB:g=original	!	!	!	!	!	!	!	!
4.GG\ 4.G\	stre	.	4.d\	-stre	.	4.b-\	-stre	.	4.b-\	-stre	.
8r	.	.	8r	.	.	8r	.	.	8r	.	.
(4G\	A-	.	[2B-\	A-	.	(4.e-\	A-	.	(4ee-\	A-	.
4G\	.	.	.	.	.	.	.	.	4dd\	.	.
.	.	.	.	.	.	8f\	.	.	.	.	.
=57	=57	=57	=57	=57	=57	=57	=57	=57	=57	=57	=57
!	!	!	!	!	!	!LO:PB:g=original	!	!	!	!	!
2E-\)	.	.	2B-\]	.	.	2g\)	.	.	1cc\)	.	.
2F\	.	.	2A/	.	.	2f\	.	.	.	.	.
=58	=58	=58	=58	=58	=58	=58	=58	=58	=58	=58	=58
2BB-/	-men	.	4B-\	-men	.	2d\	-men	.	2b-\	-men	.
.	.	.	8g\L	A-	.	.	.	.	.	.	.
.	.	.	8f\J	.	.	.	.	.	.	.	.
2r	.	.	8e-\L	.	.	2r	.	.	2r	.	.
.	.	.	8d\	.	.	.	.	.	.	.	.
.	.	.	8c\	.	.	.	.	.	.	.	.
.	.	.	8B-\J	.	.	.	.	.	.	.	.
=59	=59	=59	=59	=59	=59	=59	=59	=59	=59	=59	=59
!	!	!	!	!	!	!	!	!	!LO:PB:g=original	!	!
1F\	A-	.	1A\	.	.	1f\	A-	.	(1cc\	A-	.
=60	=60	=60	=60	=60	=60	=60	=60	=60	=60	=60	=60
2B-\	-men	.	2B-\	-men	.	2f\	-men	.	4dd\)	-men	.
.	.	.	.	.	.	.	.	.	8gg\L	A-	.
.	.	.	.	.	.	.	.	.	8ff\J	.	.
2r	.	.	2r	.	.	2r	.	.	(12ff\L	.	.
.	.	.	.	.	.	.	.	.	12ee-\	.	.
.	.	.	.	.	.	.	.	.	12dd\J)	.	.
.	.	.	.	.	.	.	.	.	(12dd\L	.	.
.	.	.	.	.	.	.	.	.	12cc\	.	.
.	.	.	.	.	.	.	.	.	12b-\J)	.	.
=61	=61	=61	=61	=61	=61	=61	=61	=61	=61	=61	=61
!LO:PB:G=original	!	!	!	!	!	!	!	!	!	!	!
1F\	A-	.	1c\	A-	.	1f\	A-	.	1a\	.	.
=62	=62	=62	=62	=62	=62	=62	=62	=62	=62	=62	=62
2.BB-/	-men.	.	2.d\	-men	.	2.f\	-men.	.	2.b-\	-men.	.
.	.	.	.	.	.	.	.	.	.	.	.
.	.	.	.	.	.	.	.	.	.	.	.
4r	.	.	4r	.	.	4r	.	.	4r	.	.
=63	=63	=63	=63	=63	=63	=63	=63	=63	=63	=63	=63
0r	.	.	0r	.	.	0r	.	.	0r	.	.
.	.	.	.	.	.	.	.	.	.	.	.
!LO:TX:a:t=3	!	!	!LO:TX:a:t=3	!	!	!LO:TX:a:t=3	!	!	!LO:TX:a:t=3	!	!
.	.	.	.	.	.	.	.	.	.	.	.
=64	=64	=64	=64	=64	=64	=64	=64	=64	=64	=64	=64
.	.	.	.	.	.	.	.	.	.	.	.
=65	=65	=65	=65	=65	=65	=65	=65	=65	=65	=65	=65
1r	.	.	1r	.	.	1r	.	.	1r	.	.
==	==	==	==	==	==	==	==	==	==	==	==
*-	*-	*-	*-	*-	*-	*-	*-	*-	*-	*-	*-
!!!system-decoration: s1,s2,s3,s4{(s5,s6)}
!!!RDF**kern: > = above
!!!RDF**kern: < = below
!!!ENC: Berenika Jozajtis
!!!END: 2020-03-06
!!!ENC: Leszek Kubiak
!!!END: 2020-04-03
!!!YEC: Copyright 2022 Narodowy Instytut Fryderyka Chopina (https://polishscores.org)
!!!YEM: License CC-BY-4.0 (https://creativecommons.org/licenses/by/4.0)
